!!!OTL: Als Gott den Adam hat erschaffen, S. 42
!!!id: S0073V
**kern
*clefG2
*k[b-]
*F:
{8a
=1
8g
8a
8cc
8cc
8dd
8cc
=2
2cc}
4r
=3
{8a
8a
4g
4a
=4
8b-
8a
4g}
=5
{4g
=6
2g
4b-
=7
4a}
4r
=8
{4a
=9
8g
8a
4.b-
8b-
=10
8a
8g
4.cc}
=11
{8cc
=12
8cc
8cc
4.dd
8b-
=13
16a
16a
8g
4.cc}
=14
{16a
16a
=15
2g
4b-
=16
2a}
=17
{8cc
8b-
=18
2a
4g
=19
4f}
4.r
==
*-
!!!minrhy: 16
!!!meters: 3/4 ]  ZZ[7
!!!cut: Als Gott den Adam hat erschaffen, S. 42
!!!reg: Luxemburg
!!!trd: Die Bauernhochzeit in fr&uuml;heren Zeiten
!!!rhy1: X_  X_X_X_X_X_X_  X___0_   (x2)
!!!rhy2: X_X_X__X__  X_X_X__
!!!key: S0073V 16  F 3/4 ]  ZZ[7
!!!mod: SECHSTONSKALA DUR ?]  AMBITUS[6
!!!kad: 5235531
!!!akz: 25_34_23_23_53_23_31_
!!!fot: 'a__b__c__cw_d__e__f__
!!!for: 'a__b__c__d__e__cv_cv_
!!!fok: '/__\__/__/__V__-__\__
!! PHRAS[VORWIEGEND AUFTAKTIG]
!!!fkt: Hochzeitslied, religiöses Ehestandslied
!! SPEDENER, G:
!! PR[24] 2K[4] 2G[16] 3K[0] 3G[0] 4A[7] 4Ü[0] 5A[0] 6K[4] 6G[0]
!! 7K[0] 7G[0] 8A[0] MEHR[0] SI[31] ABS[45] SR[20] SP[11]
!! ST[11] 2k[9] 2g[27] 3k[7] 3g[0] 4d[2] 4ü[0] 5d[0] 6k[0] 6g[0]
!! 7k[0] 7g[0] 8d[0] mehr[0] si[44] dm[-13] sr[36] sp[9]
!! 1F[8] 2F[68] 3F[14] 4F[2] LF[0] 2P[0] 3P[8] 4P[0] TRI[0] DF[5] AB[50]
!! TF[0] U3K[0] U3[0] U4[0] U4Ü[0] U5[0] U6K[0] U6[0] U7K[0] U7[0]
!! N1[0] N2K[0] N2[4] N3K[0] N3[22] N4[7] N4Ü[0] N5[30] N6K[0] N6[15]
!!!n7k: 0] N7[7] O1[13] O2K[0] O2[2] O3K[0] O3[0] HÖ[0
!!!RNB: symbol: &uuml;  = u umlaut (UTF-8: Ã¼)
